X: 6
T: Mrs. Crotty's Christening
Z: ceili
S: https://thesession.org/tunes/486#setting51453
R: reel
M: 4/4
L: 1/8
K: Dmaj
|:"D"d3A BAFA|ABdA BAFA|"Em"BE E/E/E EFGA|"G"Bdce "D"dcBA|
"D"d3A BAFA|ABdA BAFA|"Em"BE E/E/E EFGA|"G"B/B/d ce "D"dABc:|
|:"D"d2ed d/d/d ed|d/d/d ef "G"gfec|"D"defd "A"Adfa|bfaf "G"gfec|
"D"d2ed d/d/d ed|d/d/d ef "G"gfec|"D"defd "A"Adfa|bfaf "G"gfec:|"D"d8||

%-------------------- TUNE SEPARATOR --------------------%

